!!!!SEGMENT: pl-kc--40102-iii-1-saf--002-045_zielenski-mikolaj--communiones-totius-anni-in-festo-assumptionis-b-m-v-optimam-patrem.krn
!!!cenid: 16xx:1576
!!!COM: Zieleński, Mikołaj
!!!COM-rismID: pe30013481
!!!CDT: <1611->1611
!!!CNT: Polish
!!!GTL: Communiones totius anni
!!!OTL: In festo Assumptionis B. M. V./Optimam patrem
!!!OMV: 045
!!!PDT: 1611
!!!AGN:
!!!SMS-siglum: PL-Kc
!!!SMS-shelfmark: 40102 III/1 Saf.
!!!SMS-shelfwork: 002-045 G
!!!SMS-variant:
!!!SMS-altvar:
!!!NIFC-rismSourceID: 990069887
!!!NIFC-rismChildID: 990069887
!!!NIFC-islandoraID: none
!!!URL-pdf-islandora:
!!!URL-scan: https://cyfrowe.mnk.pl/dlibra/publication/24235/edition/23926/content?ref=desc @EN{Scan on The National Museum in Krakow Website} @PL{Skany w portalu Biblioteka Cyfrowa Muzeum Narodowego w Krakowie}
!!!IIIF:
!!!ONB-nifc: UWAGA: str. 69. Numer w źródle: 53. Uwaga: W xml metrum 2/1 do źródłowego C| i odpowiednio 3/1 do 3/2
!!!AIN: 5 organ
!!!key: C:ion
**kern	**kern	**kern	**kern	**kern
*group1	*group1	*group1	*group1	*group1
*part5	*part4	*part3	*part2	*part1
*staff5	*staff4	*staff3	*staff2	*staff1
*I""Organo	*	*	*	*
*Iorgan	*Iorgan	*Iorgan	*Iorgan	*Iorgan
*ICklav	*ICklav	*ICklav	*ICklav	*ICklav
*clefF5	*clefF4	*clefF3	*clefC4	*clefC3
*k[]	*k[]	*k[]	*k[]	*k[]
*C:ion	*C:ion	*C:ion	*C:ion	*C:ion
*M2/1	*M2/1	*M2/1	*M2/1	*M2/1
*met(C|)	*met(C|)	*met(C|)	*met(C|)	*met(C|)
=1	=1	=1	=1	=1
!LO:TX:t=P:problem=all/middle&colon; global	!LO:TX:t=P:problem=all/middle&colon; global	!LO:TX:t=P:problem=all/middle&colon; global	!LO:TX:t=P:problem=all/middle&colon; global	!LO:TX:t=P:problem=all/middle&colon; global
!LO:TX:t=P:problem=all\middle&colon; global	!LO:TX:t=P:problem=all\middle&colon; global	!LO:TX:t=P:problem=all\middle&colon; global	!LO:TX:t=P:problem=all\middle&colon; global	!LO:TX:t=P:problem=all\middle&colon; global
!	!	!	!LO:TX:a:t=Optimam partem	!LO:TX:a:t=53. In feſto Aſſumptionis B.M.V. à 5. Cantores cum Organo con Tromboni.
00r	1r	1G	0r	00r
.	1C	2G\	.	.
.	.	2G\	.	.
=2-	=2-	=2-	=2-	=2-
.	2C/	2.G\	1c	.
.	2C/	.	.	.
.	.	4F/	.	.
.	2.C/	4E/	2c\	.
.	.	4D/	.	.
.	.	[<2E/	2c\	.
.	4BB/	.	.	.
=3	=3	=3	=3	=3
00r	4AA/	2E/]	2.c\	00r
.	4GG/	.	.	.
.	1AA	1C	.	.
.	.	.	4B\	.
.	.	.	4A/	.
.	.	.	4G/	.
.	4GG/	1F\	1A\	.
.	4FF/	.	.	.
=4-	=4-	=4-	=4-	=4-
.	0C	.	.	.
.	.	4E/	4G/	.
.	.	4D/	4F/	.
.	.	2E/	2G/	.
.	.	4A\	[y2c\	.
.	.	4G\	.	.
=5	=5	=5	=5	=5
!	!	!	!LO:N:xstem:cue	!
0r	1D	4F#X/	4c]	00r
.	.	4D/	4B\	.
.	.	2.G\	4B\	.
.	.	.	8A/	.
.	.	.	8G/	.
.	2D/	.	2.A/	.
.	.	8F#X/	.	.
.	.	8E/	.	.
!	!	!LO:SIC:v:s:t=2F#/	!	!
.	2D/	2Fny/	.	.
.	.	.	8G/	.
.	.	.	8A/	.
=6-	=6-	=6-	=6-	=6-
1GG	2.D/	1G	4B\	.
.	.	.	4G/	.
.	.	.	4B\	.
.	4C/	.	4c\	.
2GG/	4BB/	2r	2.d\	.
.	4AA/	.	.	.
2GG/	4BB/	2G\	.	.
.	4C/	.	4c\	.
=7	=7	=7	=7	=7
2.GG/	1D	2G\	1B	1g
.	.	2G\	.	.
4FF/	.	.	.	.
4EE/	0.E	2.G\	2r	2g\
4DD/	.	.	.	.
2CC/	.	.	2c\	2g\
.	.	4F/	.	.
=8-	=8-	=8-	=8-	=8-
2CC/	.	4E/	2c\	2.g\
.	.	4F/	.	.
2.C\	.	1G	2c\	.
.	.	.	.	4f\
.	.	.	2.c\	4e\
4BB/	.	.	.	4d\
4AA/	.	2A\	.	2c/
4GG/	.	.	4B\	.
=9	=9	=9	=9	=9
2.FF/	1F	2A\	4A/	2c\
.	.	.	4B\	.
.	.	2.A\	2c\	2.f\
4GG/	.	.	.	.
(>1AA	1C	.	1c	.
.	.	4G\	.	4e\
.	.	2E/	.	2.e\
=10-	=10-	=10-	=10-	=10-
1DD)	1r	1F	2.A/	.
.	.	.	.	8d\
.	.	.	.	8c\
.	.	.	.	2d\
.	.	.	4B\	.
1AA	2r	2E/	1c	[<1e
.	2C/	2E/	.	.
=11	=11	=11	=11	=11
00r	2C/	2E/	1G	0e]
.	2C/	2E/	.	.
.	2.C/	2.E/	2r	.
.	.	.	2c\	.
.	4BB/	4D/	.	.
=12-	=12-	=12-	=12-	=12-
.	4AA/	4C/	2c\	0r
.	4GG/	4BB/	.	.
.	4FF/	4AA/	2c\	.
.	4GG/	4BB/	.	.
.	4AA/	4C/	2.c\	.
.	4BB/	4D/	.	.
.	[<2C/	4E/	.	.
.	.	4D/	4B\	.
=13	=13	=13	=13	=13
0r	2C/]	4E/	4A/	0r
.	.	4C/	4G/	.
.	2BB/	2D/	2.G/	.
*	*lig	*	*	*
.	1AA	2E/	.	.
.	.	.	8F#X/	.
.	.	.	8E/	.
.	.	4D/	4F#X/	.
.	.	4C/	8E/	.
!	!	!	!LO:SIC:v:s:t=8F#/	!
.	.	.	8Fny/	.
=14-	=14-	=14-	=14-	=14-
1GG	2.GG/	1C	4G/	1r
.	.	.	4A/	.
.	.	.	4B\	.
*	*Xlig	*	*	*
.	4AA/	.	4c\	.
2GG/	4BB/	1r	2.d\	1g
.	4C/	.	.	.
2GG/	4D/	.	.	.
.	4E\	.	4c\	.
=15	=15	=15	=15	=15
2.GG/	1D	1G	1B	2g\
.	.	.	.	2g\
4FF/	.	.	.	.
4EE/	2E\	2G\	2r	2.g\
4DD/	.	.	.	.
2CC/	2E\	2G\	2c\	.
.	.	.	.	4f\
=16-	=16-	=16-	=16-	=16-
2CC/	2E\	2.G\	2c\	4e\
.	.	.	.	4d\
2.C\	2E\	.	2c\	2e\
.	.	4F/	.	.
.	2.C/	4E/	[y1c	2e\
4BB/	.	8D/	.	.
.	.	8E/	.	.
4AA/	.	[y2F/	.	[<2a\
4GG/	4BB/	.	.	.
=17	=17	=17	=17	=17
!	!	!LO:N:xstem:cue	!LO:N:vis=4:xstem:cue	!
2FF/	2AA/	4F/]	2c]	2a\]
.	.	4E/	.	.
2GG/	2D/	4D/	2B\	2g\
.	.	4C/	.	.
0DD	0D	2D/	2A/	4f\
.	.	.	.	4d\
.	.	2B-X\	2d\	2.g\
=18-	=18-	=18-	=18-	=18-
.	.	1A	1d	.
.	.	.	.	8f#X\
.	.	.	.	8e\
.	.	.	.	4f#X\
.	.	.	.	8e\
!	!	!	!	!LO:SIC:v:s:t=8f#/
.	.	.	.	8fny\
!	!	!LO:SIC:v:s:t=2B-\	!	!
1GG	1D	2Bny\	2d\	1g
.	.	2G\	2B\	.
*custos:GG	*custos:C	*custos:G	*custos:B	*custos:d
!LO:LB:g=original	!LO:LB:g=original	!LO:LB:g=original	!LO:LB:g=original	!LO:LB:g=original
=19	=19	=19	=19	=19
00r	00r	2G\	2B\	1d
.	.	2F/	2A/	.
.	.	2E/	2G/	2r
.	.	4D/	2c\	2g\
.	.	4C/	.	.
=20-	=20-	=20-	=20-	=20-
.	.	2D/	2A/	2g\
.	.	2D/	2B\	2f\
.	.	2.C/	2c\	2e\
.	.	.	4G/	4d\
.	.	4C/	4A/	4c/
=21	=21	=21	=21	=21
00r	0r	2G\	4B\	2d\
.	.	.	4c\	.
.	.	2D/	2.d\	2.f\
.	.	2A\	.	.
.	.	.	4c\	4e\
.	.	2A\	2.c\	4e\
.	.	.	.	8d\
.	.	.	.	8c\
=22-	=22-	=22-	=22-	=22-
.	1r	2G\	.	2d\
.	.	.	8B\	.
.	.	.	8A\	.
.	.	2GG/	2B\	2d\
.	2r	2C/	1c	1e
.	2C/	2E/	.	.
=23	=23	=23	=23	=23
0r	2C/	2E/	1G	00r
.	2BB/	2D/	.	.
.	2AA/	2.C/	2r	.
.	2AA/	.	2c\	.
.	.	4D/	.	.
=24-	=24-	=24-	=24-	=24-
2r	4GG#X/	2E/	2c\	.
.	4AA/	.	.	.
2GG/	4BB/	2D/	4B\	.
.	4C/	.	4A/	.
2GG/	2D/	2.D/	2B\	.
2FF/	2AA/	.	2A/	.
.	.	4D/	.	.
=25	=25	=25	=25	=25
2EE/	2BB/	1E	2G/	2r
4DD/	2E\	.	2c\	2g\
4CC/	.	.	.	.
2DD/	2D/	0r	2A/	2g\
2DD/	2D/	.	2B\	2f\
=26-	=26-	=26-	=26-	=26-
2.DD/	2G\	.	2.c\	2e\
.	4F\	.	.	4d\
4DD/	4E\	.	4c\	4c/
2GG/	4D/	2r	2G/	4B/
.	4E\	.	.	4c/
4DD/	2F\	2A\	2A/	4d\
4DD/	.	.	.	4A/
=27	=27	=27	=27	=27
2.AA/	4E\	2A\	1A	4c/
.	4D/	.	.	4d\
.	4C/	2E/	.	4e\
4AA/	4E\	.	.	4c/
2FF/	2AA/	2F/	2r	4d\
.	.	.	.	4c/
2CC/	2C/	2E/	2G/	4c/
.	.	.	.	8B/
.	.	.	.	8A/
=28-	=28-	=28-	=28-	=28-
1.GG	2GG/	2E/	1.G	4B/
.	.	.	.	4G/
.	2.G\	4D/	.	2.c/
.	.	4C/	.	.
.	.	2D/	.	.
.	4F\	.	.	8B/
.	.	.	.	8A/
2GG/	2D/	2D/	2G/	2B/
=29	=29	=29	=29	=29
1CC	1C	2.E/	2.G/	2c/
.	.	.	.	2g\
.	.	4E/	4G/	.
1r	1r	4.F/	4.c\	4.a\
.	.	8F/	8d\	8a\
.	.	4D/	4e\	4f\
.	.	2E/	4.B\	2g\
=30-	=30-	=30-	=30-	=30-
0r	0r	.	.	.
.	.	.	8A/J	.
.	.	4C/	4c\	4e\
.	.	2.G\	4B\	4d\
.	.	.	4A/	4c/
.	.	.	4B\	4d\
.	.	8F/	4c\	4e\
.	.	8E/	.	.
.	.	2D/	2d\	2f\
=31	=31	=31	=31	=31
0r	0r	4A\	4c\	4e\
.	.	2F/	4.A/	2a\
.	.	.	8B\	.
.	.	4E/	2c\	4g\
.	.	1D	.	1f
.	.	.	8B\	.
.	.	.	8A\	.
.	.	.	2B\	.
=32-	=32-	=32-	=32-	=32-
2r	2r	2C/	2.c\	1e
2CC/	2E\	2G\	.	.
.	.	.	4c\	.
4DD/	4.D/	4.G\	4.B\	1r
4.GG/	.	.	.	.
.	8D/	8G\	8B\	.
.	4F\	4A\	4d\	.
8GG/	.	.	.	.
[<4AA/	[<4E\	[<4A\	[<4c\	.
=33	=33	=33	=33	=33
4AA/]	4E\]	4A\]	4c\]	00r
4AA/	4E\	4A\	4c\	.
2.FF/	2.F\	2.A\	2.c\	.
8EE/	4F\	4B\	4d\	.
8DD/	.	.	.	.
2CC/	2G\	2c\	2e\	.
=34-	=34-	=34-	=34-	=34-
4GG/	4G\	4B\	4.d\	.
2GG/	4.D/	2G\	.	.
.	.	.	4B\	.
.	8E\	.	8c#X\	.
4DD/	2F\	4A\	2d\	.
1AA	.	2.A\	.	.
.	8E\	.	8c#X\	.
.	8D\	.	8B\	.
!	!	!	!LO:SIC:v:s:t=2c#	!
.	2E\	.	2cny\	.
.	.	4G\	.	.
=35	=35	=35	=35	=35
2.DD/	2.D/	2F#X/	2d\	2r
.	.	2A\	2d\	2a\
4DD/	4F\	.	.	.
4.AA/	4.E\	4.A\	4.c#X\	4.b\
!	!	!	!LO:SIC:v:s:t=8c#\	!
8AA/	8E\	8A\	8cny\	8b\
4DD/	4D/	4A\	4d\	4f\
2GG/	2D/	2B\	2d\	2g\
=36-	=36-	=36-	=36-	=36-
.	.	.	.	.
4GG/	4D/	4G\	4B\	4d\
2.CC/	2.C/	2.G\	2.c\	2.e\
4CC/	4C/	4G\	4c\	4e\
2FF/	[<2C/	2A\	2c\	2f\
=37	=37	=37	=37	=37
4FF/	4C/]	2F/	2A/	2c/
4FF/	4C/	.	.	.
2CC/	2C/	2G\	2c\	2e\
2GG/	2D/	2G\	2B\	2d\
2.EE/	1E\	1G\	1B\	2.g\
=38-	=38-	=38-	=38-	=38-
.	.	.	.	.
4DD/	.	.	.	4f\
2CC/	2E\	4A\	2c\	2e\
.	.	4G\	.	.
[y1DD	2AA/	4F#X/	2A/	[y1d
.	.	4D/	.	.
.	4GG/	[y2G\	2B\	.
.	4GG/	.	.	.
*custos:DD	*custos:AA	*custos:F	*custos:a	*custos:dd
!LO:LB:g=original	!LO:LB:g=original	!LO:LB:g=original	!LO:LB:g=original	!LO:LB:g=original
=39	=39	=39	=39	=39
!LO:N:vis=4:xstem:cue	!	!LO:N:vis=4:xstem:cue	!	!LO:N:vis=4:xstem:cue
2DD]	2AA/	4G]	2A/	2d]
.	.	8F#X/	.	.
.	.	8E/	.	.
!	!	!LO:SIC:v:s:t=2F#	!	!
2DD/	2D/	2Fny/	2A/	2d\
2.GG/	2D/	1.G	4B\	2.d\
.	.	.	4A/	.
.	4r	.	4B\	.
4GG/	4D/	.	4G/	4d\
=40-	=40-	=40-	=40-	=40-
2.EE/	4C/	.	2c\	4e\
.	4BB/	.	.	4d\
.	4C/	2G\	2G/	4e\
4DD/	4D/	.	.	4f\
2CC/	2E\	2.C/	2.G/	2g\
2CC/	4D/	.	.	4f\
.	4C/	4C/	4A/	4e\
=41	=41	=41	=41	=41
2GG/	2BB/	2D/	2B\	4d\
.	.	.	.	4G/
2CC/	2C/	2E/	2.e\	2.g\
1GG	2BB/	1.G	.	.
.	.	.	4d\	4f\
.	2C/	.	2.c\	4e\
.	.	.	.	8f\
.	.	.	.	8e\
=42-	=42-	=42-	=42-	=42-
1GG	1D	.	.	1d
.	.	.	8B\	.
.	.	.	8A\	.
.	.	2G\	2B\	.
2CC/	2C/	2G\	2c\	2e\
[<2FF/	[<2C/	[<2A\	[<2c\	[<2f\
=43	=43	=43	=43	=43
2FF/]	2C]	2A\]	2c\]	2f\]
2EE/	2C/	2G\	2c\	2g\
0FF	0C	4F/	0c	2.a\
.	.	4G\	.	.
.	.	4A\	.	.
.	.	4B\	.	4g\
=44-	=44-	=44-	=44-	=44-
.	.	2A\	.	4f\
.	.	.	.	4c/
.	.	1A	.	1f
[0.CCl/	[0.Cl/	.	[0.cl\	.
.	.	4G\	.	4e\
.	.	4F\	.	4d\
=45-	=45-	=45-	=45-	=45-
.	.	00G\	.	00e\
0CC]	0C]	.	0c]	.
==	==	==	==	==
*-	*-	*-	*-	*-
!!!system-decoration: g1
!!!RDF**kern: l = terminal long
!!!RDF**kern: > = above
!!!RDF**kern: < = below
!!!ENC: Andrzej Gręziak
!!!END: 2021-12-21
!!!EED: Jędrzej Mróz
!!!EEV: 2021-12-27
!!!YEC: Copyright 2022 Narodowy Instytut Fryderyka Chopina (https://polishscores.org)
!!!YEM: License CC-BY-4.0 (https://creativecommons.org/licenses/by/4.0)
